X: 061
T: Open the Gates
T: (A GAME SONG)
%R: air, jig, march
B: "The Everyday Song Book", 1927
F: http://www.library.pitt.edu/happybirthday/pdf/The_Everyday_Song_Book.pdf
Z: 2017 John Chambers <jc:trillian.mit.edu>
M: 6/8
L: 1/8
K: G
% - - - - - - - - - - - - - - -
[| G D d B2 A | G D d B2 B | (AD) B
w: O-pen the gates as high as the sky, And let* King
%
A D B | A2d d3 | G D d B2 A |
w: George and his men pass by;  O-pen the gates as
%
G D d B2 B | (AD) B A D c | B2 G G3 |]
w: high as the sky, And let* King George and his men pass by.
% - - - - - - - - - - - - - - -

%%sep 1 1 500
%%sep 1 1 500

